X:3
T:Charlie Hunter
R:jig
C:Bobby MacLeod
D:Joe Cormier, The Dances Down Home
Z:Paul Stewart Cranford (P.S.C.), <http://www.cranfordpub.com>
L:1/8
Q:300
M:6/8
K:D
DFA GBd|Adf a2 g|fed Bcd|ecA GFE|
DFA GBd|Adf a2 g|fef gec|1Add d2 z:|2Add dfg||
|:afd dcd|BGG G2 F|EGB efd|cAA Aag|
fdA FDF|Adf a2 g|fef gec|1Add dfg:|2Add d2 z|]
